Catalina-dark/actions/24/draw-calligraphic.svg

<?xml version="1.0" encoding="UTF-8" standalone="no"?>
<svg
   xmlns:svg="http://www.w3.org/2000/svg"
   xmlns="http://www.w3.org/2000/svg"
   xmlns:xlink="http://www.w3.org/1999/xlink"
   xmlns:sodipodi="http://sodipodi.sourceforge.net/DTD/sodipodi-0.dtd"
   xmlns:inkscape="http://www.inkscape.org/namespaces/inkscape"
   sodipodi:docname="dibujo-1.svg"
   inkscape:version="1.1-dev (1:0.92.0+devel+202004260039+9758c7a)"
   id="svg6"
   version="1.1"
   viewBox="0 0 6.3499999 6.3500002"
   height="24"
   width="24">
  <defs
     id="defs2">
    <linearGradient
       id="linearGradient1012"
       inkscape:collect="always">
      <stop
         id="stop1008"
         offset="0"
         style="stop-color:#032134;stop-opacity:1;" />
      <stop
         id="stop1010"
         offset="1"
         style="stop-color:#032134;stop-opacity:0;" />
    </linearGradient>
    <linearGradient
       id="linearGradient991"
       inkscape:collect="always">
      <stop
         id="stop987"
         offset="0"
         style="stop-color:#000000;stop-opacity:1;" />
      <stop
         id="stop989"
         offset="1"
         style="stop-color:#000000;stop-opacity:0;" />
    </linearGradient>
    <linearGradient
       inkscape:collect="always"
       id="linearGradient979">
      <stop
         style="stop-color:#000000;stop-opacity:0.34136817"
         offset="0"
         id="stop975" />
      <stop
         style="stop-color:#737373;stop-opacity:0;"
         offset="1"
         id="stop977" />
    </linearGradient>
    <linearGradient
       id="linearGradient967"
       inkscape:collect="always">
      <stop
         id="stop963"
         offset="0"
         style="stop-color:#090909;stop-opacity:1" />
      <stop
         id="stop965"
         offset="1"
         style="stop-color:#737373;stop-opacity:0;" />
    </linearGradient>
    <linearGradient
       id="linearGradient959"
       inkscape:collect="always">
      <stop
         id="stop955"
         offset="0"
         style="stop-color:#ffffff;stop-opacity:1;" />
      <stop
         id="stop957"
         offset="1"
         style="stop-color:#ffffff;stop-opacity:0;" />
    </linearGradient>
    <linearGradient
       inkscape:collect="always"
       id="linearGradient937">
      <stop
         style="stop-color:#07466e;stop-opacity:1"
         offset="0"
         id="stop927" />
      <stop
         id="stop929"
         offset="0.37499988"
         style="stop-color:#9cc1dc;stop-opacity:1" />
      <stop
         style="stop-color:#166698;stop-opacity:1"
         offset="0.74999994"
         id="stop931" />
      <stop
         style="stop-color:#005e9c;stop-opacity:1"
         offset="1"
         id="stop935" />
    </linearGradient>
    <linearGradient
       id="linearGradient878"
       inkscape:collect="always">
      <stop
         id="stop874"
         offset="0"
         style="stop-color:#07466e;stop-opacity:1" />
      <stop
         style="stop-color:#9cc1dc;stop-opacity:1"
         offset="0.37499988"
         id="stop884" />
      <stop
         id="stop886"
         offset="0.74999994"
         style="stop-color:#1872a9;stop-opacity:1" />
      <stop
         id="stop876"
         offset="1"
         style="stop-color:#005e9c;stop-opacity:1" />
    </linearGradient>
    <linearGradient
       gradientTransform="translate(-19.380731,0.19843758)"
       gradientUnits="userSpaceOnUse"
       y2="2.3812501"
       x2="24.077084"
       y1="1.3229167"
       x1="23.018751"
       id="linearGradient880"
       xlink:href="#linearGradient878"
       inkscape:collect="always" />
    <linearGradient
       gradientTransform="translate(-17.528647,0.59531254)"
       gradientUnits="userSpaceOnUse"
       y2="3.7041667"
       x2="20.372917"
       y1="2.9104168"
       x1="19.579166"
       id="linearGradient908"
       xlink:href="#linearGradient937"
       inkscape:collect="always" />
    <linearGradient
       gradientTransform="translate(-20.174481,-0.46302076)"
       gradientUnits="userSpaceOnUse"
       y2="6.3500004"
       x2="22.225"
       y1="5.291667"
       x1="21.166668"
       id="linearGradient961"
       xlink:href="#linearGradient959"
       inkscape:collect="always" />
    <linearGradient
       gradientTransform="translate(-20.174481,-0.46302076)"
       gradientUnits="userSpaceOnUse"
       y2="6.0854168"
       x2="20.902084"
       y1="4.4979167"
       x1="22.489584"
       id="linearGradient969"
       xlink:href="#linearGradient967"
       inkscape:collect="always" />
    <radialGradient
       gradientUnits="userSpaceOnUse"
       gradientTransform="matrix(0.83204977,0.55470098,-0.80000122,1.1999994,-12.165368,-13.409286)"
       r="0.66145849"
       fy="5.5121527"
       fx="21.43125"
       cy="5.5121527"
       cx="21.43125"
       id="radialGradient973"
       xlink:href="#linearGradient979"
       inkscape:collect="always" />
    <linearGradient
       gradientTransform="translate(-20.372918,-0.52916656)"
       gradientUnits="userSpaceOnUse"
       y2="3.1750002"
       x2="24.870834"
       y1="2.3812501"
       x1="24.077084"
       id="linearGradient993"
       xlink:href="#linearGradient991"
       inkscape:collect="always" />
    <linearGradient
       gradientTransform="translate(-20.174481,-0.46302076)"
       gradientUnits="userSpaceOnUse"
       y2="3.7041667"
       x2="23.018751"
       y1="3.1750002"
       x1="23.547916"
       id="linearGradient1014"
       xlink:href="#linearGradient1012"
       inkscape:collect="always" />
  </defs>
  <sodipodi:namedview
     inkscape:window-maximized="1"
     inkscape:window-y="30"
     inkscape:window-x="0"
     inkscape:window-height="1024"
     inkscape:window-width="1920"
     units="px"
     showgrid="true"
     inkscape:current-layer="layer1"
     inkscape:document-units="mm"
     inkscape:cy="15.085688"
     inkscape:cx="32.699308"
     inkscape:zoom="8"
     inkscape:pageshadow="2"
     inkscape:pageopacity="0.0"
     borderopacity="1.0"
     bordercolor="#666666"
     pagecolor="#ffffff"
     id="base">
    <inkscape:grid
       spacingy="0.26458334"
       spacingx="0.26458334"
       id="grid864"
       type="xygrid" />
  </sodipodi:namedview>
  <g
     id="layer1"
     inkscape:groupmode="layer"
     inkscape:label="Layer 1">
    <path
       sodipodi:nodetypes="ccccc"
       id="path947"
       d="M 1.5213538,4.2994793 0.72760376,4.828646 0.46302076,5.8869794 1.5213538,5.6223962 2.0505208,4.5640627"
       style="fill:url(#linearGradient961);fill-opacity:1;stroke:#9aa6ad;stroke-width:0.05;stroke-linecap:butt;stroke-linejoin:miter;stroke-opacity:1;stroke-miterlimit:4;stroke-dasharray:none" />
    <path
       id="path953"
       d="M 0.72760376,5.6223961 0.99218676,5.0932294 2.0505208,4.034896 1.2567708,5.3578127 Z"
       style="fill:url(#linearGradient969);fill-opacity:1;stroke:none;stroke-width:0.264583px;stroke-linecap:butt;stroke-linejoin:miter;stroke-opacity:1" />
    <path
       sodipodi:nodetypes="cccc"
       style="fill:url(#linearGradient908);fill-opacity:1;stroke:none;stroke-width:0.05;stroke-linecap:butt;stroke-linejoin:miter;stroke-miterlimit:4;stroke-dasharray:none;stroke-opacity:1"
       d="m 3.1088538,2.4473959 -1.852085,1.8520832 c 1e-6,0.2645835 0.264584,0.5291668 0.66146,0.6614585 l 1.5875,-1.5875"
       id="path868" />
    <path
       sodipodi:nodetypes="ccccccccc"
       id="path983"
       d="M 3.7041668,2.9104167 4.2333328,3.175 5.2255208,2.1828126 4.7624998,1.5875001 5.0270828,1.3229168 5.5562498,2.1166667 4.2333328,3.4395834 3.4395828,3.175 Z"
       style="fill:#cbcbcb;fill-opacity:1;stroke:#b9c6d2;stroke-width:0.05;stroke-linecap:butt;stroke-linejoin:miter;stroke-miterlimit:4;stroke-dasharray:none;stroke-opacity:1" />
    <path
       style="fill:url(#linearGradient993);fill-opacity:1;stroke:none;stroke-width:0.05;stroke-linecap:butt;stroke-linejoin:miter;stroke-miterlimit:4;stroke-dasharray:none;stroke-opacity:1"
       d="M 3.7041668,2.9104167 4.2333328,3.175 5.2255208,2.1828126 4.7624998,1.5875001 5.0270828,1.3229168 5.5562498,2.1166667 4.2333328,3.4395834 3.4395828,3.175 Z"
       id="path985"
       sodipodi:nodetypes="ccccccccc" />
    <path
       id="path1006"
       d="m 3.1088538,2.4473959 -1.852085,1.8520832 c 1e-6,0.2645835 0.264584,0.5291668 0.66146,0.6614585 l 1.5875,-1.5875"
       style="fill:url(#linearGradient1014);fill-opacity:1;stroke:none;stroke-width:0.05;stroke-linecap:butt;stroke-linejoin:miter;stroke-miterlimit:4;stroke-dasharray:none;stroke-opacity:1"
       sodipodi:nodetypes="cccc" />
    <path
       sodipodi:nodetypes="ccccc"
       style="fill:url(#linearGradient880);fill-opacity:1;stroke:none;stroke-width:0.2;stroke-linecap:butt;stroke-linejoin:miter;stroke-miterlimit:4;stroke-dasharray:none;stroke-opacity:1"
       d="m 2.8442698,2.5796876 1.5875,-1.58749966 c 0.529167,-0.52916683 1.5875,0.13229146 0.79375,0.92604136 l -1.5875,1.5874999 C 3.3734368,3.3734377 2.8442698,2.9765627 2.8442698,2.5796876 Z"
       id="path872" />
    <path
       style="fill:url(#radialGradient973);fill-opacity:1;stroke:none;stroke-width:0.264583px;stroke-linecap:butt;stroke-linejoin:miter;stroke-opacity:1"
       d="M 0.72760376,5.6223961 0.99218676,5.0932294 2.0505208,4.034896 1.2567708,5.3578127 Z"
       id="path971" />
  </g>
</svg>

<svg width="24" height="24" version="1.1" viewBox="0 0 6.35 6.35" xmlns="http://www.w3.org/2000/svg">
<defs>
<linearGradient id="linearGradient880" x1="23.019" x2="24.077" y1="1.3229" y2="2.3813" gradientTransform="translate(-19.381 .19844)" gradientUnits="userSpaceOnUse"/>
<linearGradient id="linearGradient908" x1="19.579" x2="20.373" y1="2.9104" y2="3.7042" gradientTransform="translate(-17.529 .59531)" gradientUnits="userSpaceOnUse"/>
<linearGradient id="linearGradient961" x1="21.167" x2="22.225" y1="5.2917" y2="6.35" gradientTransform="translate(-20.174 -.46302)" gradientUnits="userSpaceOnUse"/>
<linearGradient id="linearGradient969" x1="22.49" x2="20.902" y1="4.4979" y2="6.0854" gradientTransform="translate(-20.174 -.46302)" gradientUnits="userSpaceOnUse"/>
<radialGradient id="radialGradient973" cx="21.431" cy="5.5122" r=".66146" gradientTransform="matrix(.83205 .5547 -.8 1.2 -12.165 -13.409)" gradientUnits="userSpaceOnUse"/>
<linearGradient id="linearGradient993" x1="24.077" x2="24.871" y1="2.3813" y2="3.175" gradientTransform="translate(-20.373 -.52917)" gradientUnits="userSpaceOnUse"/>
<linearGradient id="linearGradient1014" x1="23.548" x2="23.019" y1="3.175" y2="3.7042" gradientTransform="translate(-20.174 -.46302)" gradientUnits="userSpaceOnUse"/>
</defs>
<g>
<path d="m1.5214 4.2995-0.79375 0.52917-0.26458 1.0583 1.0583-0.26458 0.52917-1.0583" fill="url(#linearGradient961)" stroke="#9aa6ad" stroke-width=".05"/>
<path d="m0.7276 5.6224 0.26458-0.52917 1.0583-1.0583-0.79375 1.3229z" fill="url(#linearGradient969)"/>
<path d="m3.1089 2.4474-1.8521 1.8521c1e-6 0.26458 0.26458 0.52917 0.66146 0.66146l1.5875-1.5875" fill="url(#linearGradient908)"/>
<path d="m3.7042 2.9104 0.52917 0.26458 0.99219-0.99219-0.46302-0.59531 0.26458-0.26458 0.52917 0.79375-1.3229 1.3229-0.79375-0.26458z" fill="#cbcbcb" stroke="#b9c6d2" stroke-width=".05"/>
<path d="m3.7042 2.9104 0.52917 0.26458 0.99219-0.99219-0.46302-0.59531 0.26458-0.26458 0.52917 0.79375-1.3229 1.3229-0.79375-0.26458z" fill="url(#linearGradient993)"/>
<path d="m3.1089 2.4474-1.8521 1.8521c1e-6 0.26458 0.26458 0.52917 0.66146 0.66146l1.5875-1.5875" fill="url(#linearGradient1014)"/>
<path d="m2.8443 2.5797 1.5875-1.5875c0.52917-0.52917 1.5875 0.13229 0.79375 0.92604l-1.5875 1.5875c-0.26458-0.13229-0.79375-0.52917-0.79375-0.92604z" fill="url(#linearGradient880)"/>
<path d="m0.7276 5.6224 0.26458-0.52917 1.0583-1.0583-0.79375 1.3229z" fill="url(#radialGradient973)"/>
</g>
</svg>
